ufans-frontend-package/public/assets/images/icons/wallet-active.svg

<svg width="97" height="97" viewBox="0 0 97 97" fill="none" xmlns="http://www.w3.org/2000/svg">
<g clip-path="url(#clip0)">
<path d="M96.884 26.8896L95.616 19.9586C95.442 19.0076 94.614 18.3176 93.649 18.3176C93.645 18.3176 93.643 18.3176 93.639 18.3176C92.669 18.3216 91.844 19.0206 91.678 19.9756L80.271 85.6956L22.136 85.6976C20.743 85.6976 19.454 85.1216 18.503 84.0766C17.413 82.8756 16.806 81.0846 16.952 79.5496C17.378 75.8506 20.052 73.1646 23.306 73.1646H71.822C72.797 73.1646 73.631 72.4616 73.793 71.4986L85.151 4.3506C85.249 3.7696 85.087 3.1756 84.706 2.7256C84.327 2.2756 83.768 2.0166 83.18 2.0166H34.702C23.643 2.0166 12.847 11.0106 10.634 22.0586L0.275992 72.7756C-0.656008 78.7136 0.789991 84.2956 4.34799 88.4966C7.84199 92.6216 12.965 94.8936 18.774 94.8936L19.7 94.8906C19.718 94.8906 19.735 94.8916 19.755 94.8916C22.849 94.8946 82.02 94.8986 82.637 94.8986C84.876 94.8986 86.784 93.2946 87.18 91.0416L96.893 27.5496C96.928 27.3316 96.923 27.1066 96.884 26.8896Z" fill="#0091EA"/>
</g>
<defs>
<clipPath id="clip0">
<rect width="96.916" height="96.916" fill="white"/>
</clipPath>
</defs>
</svg>

<svg xmlns="http://www.w3.org/2000/svg" xmlns:xlink="http://www.w3.org/1999/xlink" width="96.916" height="96.916" viewBox="0 0 96.916 96.916">
  <defs>
    <clipPath id="clip-path">
      <rect id="Rectangle_1" data-name="Rectangle 1" width="96.916" height="96.916" fill="#e44499"/>
    </clipPath>
  </defs>
  <g id="wallet-active" clip-path="url(#clip-path)">
    <path id="Path_1" data-name="Path 1" d="M96.884,26.89l-1.268-6.931a2,2,0,0,0-1.967-1.641h-.01a2,2,0,0,0-1.961,1.658L80.271,85.7l-58.135,0A4.863,4.863,0,0,1,18.5,84.077a6.213,6.213,0,0,1-1.551-4.527c.426-3.7,3.1-6.385,6.354-6.385H71.822A2,2,0,0,0,73.793,71.5L85.151,4.351A2,2,0,0,0,83.18,2.017H34.7c-11.059,0-21.855,8.994-24.068,20.042L.276,72.776A19.269,19.269,0,0,0,4.348,88.5a18.5,18.5,0,0,0,14.426,6.4l.926,0h.055c3.094,0,62.265.007,62.882.007a4.613,4.613,0,0,0,4.543-3.857L96.893,27.55A1.976,1.976,0,0,0,96.884,26.89Z" fill="#e44499"/>
  </g>
</svg>
